gama.ui.shared/icons_svg/light/views/layout.menu.svg

<svg height="25" viewBox="-872.5 -3407.468 25 25" width="25" xmlns="http://www.w3.org/2000/svg"><g fill="none"><path d="m-868.16-3406.968h16.32c2.1208 0 3.84 1.719 3.84 3.84v16.32c0 2.1207-1.7192 3.84-3.84 3.84h-16.32c-2.1208 0-3.84-1.7193-3.84-3.84v-16.32c0-2.121 1.7192-3.84 3.84-3.84z" fill="#fff"/><path d="m-868.16-3406.968h16.32c2.1208 0 3.84 1.719 3.84 3.84v16.32c0 2.1207-1.7192 3.84-3.84 3.84h-16.32c-2.1208 0-3.84-1.7193-3.84-3.84v-16.32c0-2.121 1.7192-3.84 3.84-3.84z" stroke="#000" stroke-linecap="round" stroke-linejoin="round" stroke-width=".25"/><path d="m-859.1111-3387.857h4.8889c.7378 0 1.3333-.5955 1.3333-1.3333v-6.6667h-6.2222zm-.8889 0v-5.3333h-7.1111v4c0 .7378.5956 1.3333 1.3333 1.3333zm0-6.222v-8h-5.7778c-.7377 0-1.3333.5954-1.3333 1.333v6.667zm.8889-8v5.333h6.2222v-4c0-.7376-.5955-1.333-1.3333-1.333zm-8.8889 1.333c0-1.2265.9956-2.222 2.2222-2.222h11.5556c1.2267 0 2.2222.9955 2.2222 2.222v11.5557c0 1.2267-.9955 2.2223-2.2222 2.2223h-11.5556c-1.2266 0-2.2222-.9956-2.2222-2.2223z" fill="#66727e"/></g></svg>

<?xml version="1.0" encoding="UTF-8" standalone="no"?>
<!DOCTYPE svg PUBLIC "-//W3C//DTD SVG 1.1//EN" "http://www.w3.org/Graphics/SVG/1.1/DTD/svg11.dtd">
<svg version="1.1" xmlns="http://www.w3.org/2000/svg" xmlns:xl="http://www.w3.org/1999/xlink" xmlns:dc="http://purl.org/dc/elements/1.1/" viewBox="-872.5 -3407.468 25 25" width="25" height="25">
  <defs/>
  <g id="SOURCES" stroke-dasharray="none" fill="none" stroke="none" fill-opacity="1" stroke-opacity="1">
    <title>SOURCES</title>
    <g id="SOURCES_Calque_2">
      <title>Calque 2</title>
      <g id="Graphic_9718">
        <path d="M -868.16 -3406.968 L -851.84 -3406.968 C -849.7192 -3406.968 -848 -3405.249 -848 -3403.128 L -848 -3386.808 C -848 -3384.6873 -849.7192 -3382.968 -851.84 -3382.968 L -868.16 -3382.968 C -870.2808 -3382.968 -872 -3384.6873 -872 -3386.808 L -872 -3403.128 C -872 -3405.249 -870.2808 -3406.968 -868.16 -3406.968 Z" fill="white"/>
        <path d="M -868.16 -3406.968 L -851.84 -3406.968 C -849.7192 -3406.968 -848 -3405.249 -848 -3403.128 L -848 -3386.808 C -848 -3384.6873 -849.7192 -3382.968 -851.84 -3382.968 L -868.16 -3382.968 C -870.2808 -3382.968 -872 -3384.6873 -872 -3386.808 L -872 -3403.128 C -872 -3405.249 -870.2808 -3406.968 -868.16 -3406.968 Z" stroke="black" stroke-linecap="round" stroke-linejoin="round" stroke-width=".25"/>
      </g>
      <g id="Group_9728">
        <title>layout-4</title>
        <g id="Graphic_9729">
          <path d="M -859.1111 -3387.857 L -854.2222 -3387.857 C -853.4844 -3387.857 -852.8889 -3388.4525 -852.8889 -3389.1903 L -852.8889 -3395.857 L -859.1111 -3395.857 Z M -860 -3387.857 L -860 -3393.1903 L -867.1111 -3393.1903 L -867.1111 -3389.1903 C -867.1111 -3388.4525 -866.5155 -3387.857 -865.7778 -3387.857 Z M -860 -3394.079 L -860 -3402.079 L -865.7778 -3402.079 C -866.5155 -3402.079 -867.1111 -3401.4836 -867.1111 -3400.746 L -867.1111 -3394.079 Z M -859.1111 -3402.079 L -859.1111 -3396.746 L -852.8889 -3396.746 L -852.8889 -3400.746 C -852.8889 -3401.4836 -853.4844 -3402.079 -854.2222 -3402.079 Z M -868 -3400.746 C -868 -3401.9725 -867.0044 -3402.968 -865.7778 -3402.968 L -854.2222 -3402.968 C -852.9955 -3402.968 -852 -3401.9725 -852 -3400.746 L -852 -3389.1903 C -852 -3387.9636 -852.9955 -3386.968 -854.2222 -3386.968 L -865.7778 -3386.968 C -867.0044 -3386.968 -868 -3387.9636 -868 -3389.1903 Z" fill="#66727e"/>
        </g>
      </g>
    </g>
  </g>
</svg>
